X: 6611
T: Causeway Sunsets
R: barndance
M: 4/4
K: Amajor
ABcd e2 fg|gagf e4|efdf fece|edcd BdcB|
ABcd e2 fg|gagf e2 ce|efdf fece|edcB Aefg||
agab agfe|efdf e3 c|Adfd Acef|edcd Befg|
agab agfe|efdf e3 c|Adfa aecd|edcB A2AB||
=c2 cd cBBA|e=fd=f e3 =c|Ad=fd A=cec|GBe=f ed=cB|
=c2 cd cBBA|e=fdf e3 c|Ad=fa ae=cd|edB=c A2 AB||
=c2 Ac B2 =GB|AB=G=F E4|Ad=fd A=cec|^GBe=f ed=cB|
=c2 Ac B2 =GB|AB=G=F E4|Ade=f fe=cd|edB=c A4||

